X:1
T:Have You Ever Heard the Story?
T:Have You Ever Heard the Story?
T:Samuel Wesley Martin (1839-?)
T:Mrs. S. Z. Kaufman, 1885
T:Public Domain Courtesy of the Cyber Hymnal™
T:Public Domain Courtesy of the Cyber Hymnal™
C:Samuel Wesley Martin (1839-?)
Z:Public Domain
Z:Courtesy of the Cyber Hymnal™
%%score ( 1 2 ) ( 3 4 )
L:1/8
Q:1/4=112
M:4/4
K:Eb
V:1 treble 
V:2 treble 
V:3 bass 
V:4 bass 
V:1
 B,B, | E2 E2 [B,E]2 [EG]2 | [Ec]2 [EB]4 [EB][EB] | c2 B2 [CE]2 [DF]2 | [EG]6 [EG][GB] | %5
w: 1.~Have you|ev- er heard the|sto- ry Of the|Babe of Beth- le-|hem, Who was|
w: 2.~Have you|ev- er head the|sto- ry, How He|walked up- on the|sea, To His|
w: 3.~Have you|ev- er heard of|Je- sus Pray- ing|in Geth- se- ma-|ne, And the|
 [FA]2 [DF]2 [EG]2 E2 | [DF]2 [DB]4 [DB][Ec] | [Fd]2 [Ec]2 [DB]2 [E=A]2 | [DB]6 B,B, | %9
w: wor- shipped by the|an- gels And the|wise and ho- ly|men? How He|
w: dear di- sci- ples|toss- ing On the|waves on Ga- li-|lee? How the|
w: ev- er- thrill- ing|sto- ry, How He|died up- on the|tree, Cru- el|
 [B,E]2 [B,E]2 [CE]2 [CE]2 | [B,E]2 [B,E]4 [B,E][EG] | F2 F2 [EF]2 [EF]2 | [DF]6 GF | %13
w: taught the learn- èd|doc- tors In the|tem- ple far a-|way? O I’m|
w: waves in an- gry|mo- tion Quick- ly|did his will o-|bey? O I’m|
w: thorns His fore- head|pierc- ing, As His|spir- it passed a-|way? That He|
 E2 E2 [_DE]2 [DE]2 | [CE]2 [CE]4 EF | G2 A2 G2 F2 | E6 ||"^Refrain" G>E | (z2 A>)F x6 | %19
w: glad, so glad to|tell you He is|just the same to-|day!|||
w: glad, so glad to|tell you He is|just the same to-|day!|Just the|* same,|
w: did for you, my|bro- ther, And he’s|just the same to-|day!|||
 (z2 B)B x8 | c2 B2 E2 [DF]2 | [EG]6 G>E | (z2 B>)G x6 | (!fermata!z2 E2 !fermata!E2) EF | %24
w: |||||
w: * just|the same, He is|just the same|* to-|* * day. Just|
w: |||||
 [EG]2 (BA) [EG]2 [DF]2 | E6 |] %26
w: ||
w: the same, * just the|same,|
w: ||
V:2
 x2 | B,4 x4 | x8 | E4 x4 | x8 | x6 E2 | x8 | x8 | x8 | x8 | x8 | F2 F2 x4 | x6 D2 | E2 E2 x4 | %14
 x6 E2 | E4 D4 | E6 || G>E | (B6 D>E F2) | (B6 E>F G2) E2 | E4 E2 x2 | x8 | (B6 D2 E2) | (e6 E2) | %24
 x2 E2 x4 | E6 |] %26
V:3
 B,,2 | [E,G,]4 [E,G,]2 [E,B,]2 | [E,A,]2 [E,G,]4 [G,B,]2 | A,2 [G,B,]2 [C,G,]2 [B,,B,]2 | %4
 B,6 [E,B,]2 | B,6 [C,=A,]2 | [B,,B,]2 [B,,B,]4 [B,,B,]2 | [B,,B,]2 [E,G,]2 F,2 [F,C]2 | %8
 B,6 [D,A,]2 | [E,G,]4 [A,,B,]4 | [E,G,]2 [E,G,]4 G,B, | [D,B,]4 [C,=A,]4 | %12
 [B,,B,]6 [B,,B,][=B,,A,] | [C,G,]4 [B,,G,]4 | [A,,A,]2 [A,,A,]4 C2 | B,2 C2 B,2 A,2 | [E,G,]6 || %17
 z2 | z2 (F,>G, [B,,A,]2) z2 x2 | z2 (G,>A, [E,B,]2) [E,G,]2 x4 | A,2 G,2 [C,G,]2 [B,,B,]2 | %21
 B,6 z2 | z2 [F,A,]2 [E,G,]2 z2 x2 | z2 G,2 !fermata![C,G,]2 [C,G,][_C,A,] | %24
 [B,,B,]2 ([G,,_D][A,,C]) [B,,B,]2 [B,,A,]2 | [E,G,]6 |] %26
V:4
 x2 | x8 | x8 | A,2 x6 | (E,2 B,,2 G,2) x2 | D,2 B,,2 E,2 x2 | x8 | x4 F,2 x2 | %8
 (B,,2 D,F, B,,2) x2 | x8 | x6 E,2 | x8 | x8 | x8 | x6 A,,=A,, | B,,4 B,,4 | x6 || x2 | %18
 x2 B,,2 x6 | x2 E,2 x8 | E,4 x4 | (E,2 B,,2 E,2) x2 | x10 | x2 E,>D, x4 | x8 | x6 |] %26

